X:1
T:Sabbath Bell, LM
T:Sabbath Bell, LM
T:John Harrison Tenney, before 1913
T:Public Domain Courtesy of the Cyber Hymnal™
C:John Harrison Tenney, before 1913
Z:Public Domain
Z:Courtesy of the Cyber Hymnal™
%%score 1 ( 2 3 )
L:1/8
Q:1/4=95
M:3/4
K:Bb
V:1 treble 
V:2 bass 
V:3 bass 
V:1
 [DF][DF] [DB] | [Fd]3 [FB] [EG][EA] | [DB]3 [Ec] [Ec][DB] | [CA]3 [EG] [DF][CE] | %4
 [B,D]3 [DF] [FB][Fc] | [Fd]3 [Fe] [Ff][Fd] | [Fc]3 [Fc] [Fd][Ec] | [DB][Gc] [FB]2 [EA]2 | [DB]3 |] %9
V:2
 [B,,B,][B,,B,] [B,,B,] | [B,,B,]3 [D,B,] [E,B,]F, | [B,,F,]3 F, F,F, | F,3 F, F,F, | %4
 [B,,F,]3 [B,,B,] [D,B,][F,A,] | B,3 [B,C] [B,D]B, | [F,A,]3 [F,A,] B,[F,A,] | %7
 [G,B,][E,E] [F,D]2 [F,C]2 | [B,,B,]3 |] %9
V:3
 x3 | x5 F, | x3 F, F,F, | F,3 F, F,F, | x6 | B,3 B, x2 | x4 B, x | x6 | x3 |] %9

